fs/gas_20_filled.svg

<svg viewBox="0 0 20 20" fill="none" xmlns="http://www.w3.org/2000/svg" height="1em" width="1em">
  <path d="M11.084 2.22265C11.1767 2.08355 11.3328 2 11.5 2H14.5C14.7761 2 15 2.22386 15 2.5V5.49982C15.6072 5.95592 16 6.68209 16 7.5V14.5C16 15.8807 14.8807 17 13.5 17H6.5C5.11929 17 4 15.8807 4 14.5V7.5C4 6.11929 5.11929 5 6.5 5H6.91465C6.70873 4.4174 6.15311 4 5.5 4H4.5C4.22386 4 4 3.77614 4 3.5C4 3.22386 4.22386 3 4.5 3H5.5C6.70948 3 7.71836 3.85888 7.94999 5H9.23241L11.084 2.22265ZM14 3H11.7676L10.4343 5H13.5C13.6712 5 13.8384 5.01722 14 5.05001V3ZM12.8536 8.14645C12.6583 7.95118 12.3417 7.95118 12.1464 8.14645L10 10.2929L7.85355 8.14645C7.65829 7.95118 7.34171 7.95118 7.14645 8.14645C6.95118 8.34171 6.95118 8.65829 7.14645 8.85355L9.29289 11L7.14645 13.1464C6.95118 13.3417 6.95118 13.6583 7.14645 13.8536C7.34171 14.0488 7.65829 14.0488 7.85355 13.8536L10 11.7071L12.1464 13.8536C12.3417 14.0488 12.6583 14.0488 12.8536 13.8536C13.0488 13.6583 13.0488 13.3417 12.8536 13.1464L10.7071 11L12.8536 8.85355C13.0488 8.65829 13.0488 8.34171 12.8536 8.14645Z" fill="#212121"/>
</svg>

<svg viewBox="0 0 20 20" fill="none" xmlns="http://www.w3.org/2000/svg" height="1em" width="1em">
  <path d="M11.084 2.223A.5.5 0 0 1 11.5 2h3a.5.5 0 0 1 .5.5v3c.607.456 1 1.182 1 2v7a2.5 2.5 0 0 1-2.5 2.5h-7A2.5 2.5 0 0 1 4 14.5v-7A2.5 2.5 0 0 1 6.5 5h.415A1.5 1.5 0 0 0 5.5 4h-1a.5.5 0 0 1 0-1h1a2.5 2.5 0 0 1 2.45 2h1.282l1.852-2.777ZM14 3h-2.232l-1.334 2H13.5c.171 0 .338.017.5.05V3Zm-1.146 5.146a.5.5 0 0 0-.708 0L10 10.293 7.854 8.146a.5.5 0 1 0-.708.708L9.293 11l-2.147 2.146a.5.5 0 0 0 .708.708L10 11.707l2.146 2.147a.5.5 0 0 0 .708-.708L10.707 11l2.147-2.146a.5.5 0 0 0 0-.708Z" fill="#212121"/>
</svg>
